X: 820
T: Gerdâniye Seyir
C: Erol Bingöl
O: Turkey
F: http://compmusic.upf.edu/node/140
N: gerdaniye--seyir--senginsemai--1--erol_bingol
N: makam= gerdaniye
N: form= seyir
N: usul= senginsemai = 6/4
M: 6/4
L: 1/16
K: C _2/4B ^3/4f  
Q: 1/4=60
%%MIDI tuningsystem comma53
g6f2 e4 f4 g8  | f2g2 a2b2 a4 g2f2 g4 f2e2  | \
w:   |   | 
d4 g4 g4 f2e2 a4 g2f2  | 
w:   | 
f2g2 f2e2 e2=f2 e2d2 d8  | c4 d4 e4 d4 e8  | \
w:   |   | 
e2g2 f2a2 g4 =f2e2 e2d2 d2c2  | 
w:   | 
d4 e2d2 d2c2 c2B2 c8  | B2c2 B2d2 c2B2 B2A2 A8  | |


